X: 1
T: Jellyfish, The
M: 6/8
L: 1/8
R: jig
K: Dmaj
|:c|d2A FED|FAd f2e|d2A FED|gfg ecA|
d2A FED|FAd fag|fed cBA|d3 d2:|
|:^e|faa agf|egg gfe|dff fed|cBA gfe|
faa agf|egg gfe|dfe cBA|d3 d2:|
